public/avatar/hat/204.svg

<svg xmlns:xlink="http://www.w3.org/1999/xlink" height="92.9" width="100.7" xmlns="http://www.w3.org/2000/svg"><use height="28.75" transform="translate(12.6 35.4)" width="45.85" xlink:href="#a"/><defs><g id="a" fill-rule="evenodd"><path d="m11.6 9.35-.25 1.25q-1.05.65-5.9.65l-2-.25H2.4l-8.05-.55q-.8-.25-1.35-.85l-1.7 2.1q-2.45 2.55-4.6 2.55-1.25 0-1.35-1.3 0-.8 1.25-1.2 1.8-.55 2.95-1.85l1-1.6.15-.15-.25-.15q-.6-.45-.6-1.3 0-1.2 1.45-1.2.7 0 2.4 1.15l2.05 1.3q.1-1.25.95-1.7L-2 5.7l6.4-.2q5.45 0 6.75.65.35.15.35.95l-.3 1.05q.4.45.4 1.2" fill-opacity=".212" transform="translate(26.05 14.35)"/><path d="M9.6-10.65 9-11.9q-.6-1.2-1.7-1.4l-1.3.5-.75.8-.6.45-.25-.15-.2-.5-2.4-.7H.2l-.95-.15-.35-.05-3.1-.1-3.05.55-.3.05-.3.1-2 .7-.2.1-.9.5-1.65 1.2-1.15 1.2-.4.35-.3.55v.05l-1.5 3.05-.4 2.7.45 3.35.15.4.1.3.35.95.45.65 1 1.55q-.4 4-4.65 4.55l-1.2.05-2.05-1.15-.15-1.2.55-.8 1.65-.5.55-.15.95.5.75.3.85-.6q.3-1.85-1.4-2.65l-.75-.3q-5-2.05-6.3 2.85l-.15.95.05 1.2q.05 3.4 2.8 4.55 2.3.85 4.85.7l1.1-.3q2.1-.3 3.5-1.85l4.2-5.2 6.65 1.45q1.15.35 2-.65l.5-1.6.4.05Q4.5 8.6 9.3 8.2l.4-1.4 1.15.4q4 1 6.9-1.7 3.9-4.75.35-9.4 3.55 4.65-.35 9.4-2.9 2.7-6.9 1.7L9.7 6.8l-1.2-1-.3-.45-.15-.25q3.6 2.6 7.45.85l.6-.3q2.25-1.4 2.45-4L18.6.9l-.8 1.6q.95-3.25.3-6.4l-.45-.55L17.4-6l-.05-.4q-1-6.9-5.6-3.15l-2.15-1.1 2.15 1.1.5 1.6-.15.3-1.4-.65-.75-.6-.35-1.75M17.75 5.5 16 6.9l-2.65 1.4-2.8-.1-.55.5Q5.25 9.85 1.05 6.85q-.4 1.25-1.6 1.4-4.1 1.05-7.85-1-1.85 3-4.75 5.1-5.15 3.85-10.35.5-3.15-1.95-2.4-5.6Q-24-1.8-16.15 3.8q-.9-1.9-1.15-4.15-.4-4 2.15-7.05Q-6.75-17.6 6-12.8q-12.75-4.8-21.15 5.4-2.55 3.05-2.15 7.05.25 2.25 1.15 4.15Q-24-1.8-25.9 7.25q-.75 3.65 2.4 5.6 5.2 3.35 10.35-.5 2.9-2.1 4.75-5.1 3.75 2.05 7.85 1 1.2-.15 1.6-1.4 4.2 3 8.95 1.85l.55-.5 2.8.1L16 6.9l1.75-1.4M6.25-5.65q3.3-1.25 5 1.75l.3.7-1 .4Q8.05-5.55 4.5-4.75l1.75-.9m8 4.2-.5-1q1.05-1.4 2.5-.55.85.5 1.4 1.75l-1.25-1.1-2.15.9M12.9 0l2.3.1-1.35.6-.95-.7m-29.55 7.6-.35.2q-1.3.55-2.2-.6l-1.15-.1-.25.3v.9l1.15.45q3.55 0 4.3-3.4l-.7-.9q.75 1.85-.8 3.15" transform="translate(26.05 14.35)"/><path d="m17.4-6 .25 1.55.45.55q.65 3.15-.3 6.4-.95 1.4-2.55 2.1l.8-.8q.55-.6.65-1.4L5-2.3 5.45-1Q8.2 5.45 14.8 4.85q-2.75 1.25-5.8.4l-.95-.15.15.25-.25.15q-4.9.45-9.3-3.15Q-3.05 1-5 0l-2.55-2.45-1.3.15q3.1 1.85 3.55 5.55 3.3-.1 4.85 2.1-5 1.35-10.1-1.05l-1.55.05q.15 9.5-10.75 8.1l.5.25q-2.75-1.15-2.8-4.55l-.05-1.2q3.45 8.25 11.05 1.5 1.15-.95.95-2.5l-.5-3.65v-.05l.45-.25h-.5v-.05L-14 .05l.85.15-.9-.95V-.8l.35-3.9 1.6 2.35-.7-4.45 2.5-2.2.95 4.8.65-5.5.05-.05 3.6-.9-.35 5.9 2.45-6.15h.05q1.4-.1 2.8.6l.7.4-.7 5.05.2-1 1.6-3.1.05.05 1.7 1.15.25-.35 3.25-3.25.25.15Q8.55-10 9.1-8.15l-1.9.4 1.8.1q2.65.3 5.1 1.35l-1.95-1.35L14.5-9.8l1.8 3.05q-.2-2.4-1.8-3.65l-.95.4 1.05-.6q1.85 2.25 2.8 4.6M-19.15 5.9l-.55.15.6-.2-.05.05m-2.6 2.65 2.05 1.15-1.45-.3q-.6-.35-.6-.85m6.9-5-.45-.65.05.05.4.6M-12.6-10l1.65-1.2.9-.5v.05L-12.6-10M.1-5.85.6-4.2l-1.45.9 1.1 1.8-1.2.45 5.4 3.75L.4-.65l1.15-.55-1.5-1.9 1.6-.7-.8-1.6 1.55-.7-2.3.25m8.1-1.6 1.35.85q2.1 1.4 3.25 3.7l.4-.3.35-.4.2-.35.25-1.3-.05-.85L8.2-7.45m-1.95 1.8-1.75.9q3.55-.8 6.05 1.95l1-.4-.3-.7q-1.7-3-5-1.75m8 4.2 2.15-.9 1.25 1.1Q17.1-2.5 16.25-3q-1.45-.85-2.5.55l.5 1M12.9 0l.95.7L15.2.1 12.9 0" fill="#a449d7" transform="translate(26.05 14.35)"/><path d="m-15.3 2.9-.35-.95.35.9.05.1-.05-.05m17-11.85L.1-5.85l-.2 1L.6-9.9h.05l1.05.95m-4.65-1.95L-5.4-4.75l.35-5.9H-5l2.05-.25M-8.7-9.7l-.65 5.5-.95-4.8.05-.05 1.55-.65m-4.1 2.9.7 4.45-1.6-2.35.9-2.1m-1.25 6.05.9.95-.85-.15V0l-.05-.75m.3 2.75h.5l-.45.25-.05-.25" fill="#d779ff" transform="translate(26.05 14.35)"/><path d="m-25.2 6.95.15-.95q1.3-4.9 6.3-2.85l.5 1.85-.85.85-.6.2-1.65.5-.55.8.15 1.2q0 .5.6.85l1.45.3 1.2-.05q4.25-.55 4.65-4.55l-1-1.55-.4-.6-.05-.1 1.6-.55.5 3.65q.2 1.55-.95 2.5-7.6 6.75-11.05-1.5m9.3-5.7-.45-3.35.1.45L-14 0v.05l.25 1.9-2.15-.7m-.05-6.05 1.5-3.05.75 3.15-.35 3.9-1.9-4m5.9-6.9.2-.1 2-.7.3-.1.3-.05 3.05-.55-.8 2.55h-.05l-3.6.9 1.1-2.85-2.5.9m8.95-1.4.35.05.95.15h1.6l-1.15 3H.6l-.7-.4q-1.4-.7-2.8-.6l1.75-2.2h.05m5.5 1.4.25.15.6-.45-1.8 4.25-1.7-1.15 2.65-2.8m4.7 3.55Q8.55-10 7.2-11.2l-.25-.15L3.7-8.1l.35-.75 1.1-1.85 1.65-1.7q.95 0 1.65 1.25t.7 3H9.1M-10.3-9l-2.5 2.2.2-3.2 2.55-1.65-.2 2.6-.05.05M8.2-7.45l5.75 1.35.05.85-.25 1.3-.2.35-.35.4-.4.3q-1.15-2.3-3.25-3.7L8.2-7.45m3.95-.2h-.05l.15-.3 1.3-2.05.95-.4q1.6 1.25 1.8 3.65L14.5-9.8l-2.35 2.15m-.05 0-1.85-.5.45-.15 1.4.65m-19.35-5-.6.15.6-.15" fill="#e366ff" transform="translate(26.05 14.35)"/><path d="m-18.75 3.15.75.3q1.7.8 1.4 2.65l-.85.6-.75-.3-.95-.5.05-.05.85-.85-.5-1.85m3.1-1.2-.1-.3-.15-.4 2.15.7V2l.05.25v.05l-1.6.55-.35-.9m-.7-4.05.4-2.7 1.9 4v.05L-14 0l-2.25-1.65-.1-.45m1.9-5.75v-.05l.3-.55.4-.35 1.15-1.2-.2 3.2-.9 2.1-.75-3.15M-4.2-13.2l3.1.1h-.05l-1.75 2.2h-.05l-2.05.25.8-2.55m6 .3 2.4.7.2.5-2.65 2.8-.05-.05L.65-9.9l1.15-3M-8.65-9.75l-.05.05-1.55.65.2-2.6v-.05l2.5-.9-1.1 2.85m18.6.9v-.05l.75.6-.45.15-.3-.7" fill="#ffa9ff" transform="translate(26.05 14.35)"/><path d="m9.7 6.8-.4 1.4Q4.5 8.6.85 5.3l-.4-.05-.5 1.6q-.85 1-2 .65L-8.7 6.05l-4.2 5.2q-1.4 1.55-3.5 1.85l-1.95.05q2.1-.2 3.8-1.3l.65-.5q2.1-2.05 3.3-4.85l-1.1-1.95 10 2.35 1.1-.95.15-.6Q-2 3.15-5.3 3.25q-.45-3.7-3.55-5.55l1.3-.15L-5 0l.45 2.25.15.2Q1.3 5.05 7.1 7.3l1.6.25-.75-2.05.55.3 1.2 1M.1-5.85l2.3-.25-1.55.7.8 1.6-1.6.7 1.5 1.9L.4-.65 4.45 2.7l-5.4-3.75 1.2-.45-1.1-1.8L.6-4.2.1-5.85" fill="#620088" transform="translate(26.05 14.35)"/><path d="m6-12.8 1.3-.5q1.1.2 1.7 1.4l.6 1.25.35 1.75v.05l.3.7 1.85.5h.05L14.1-6.3Q11.65-7.35 9-7.65l-1.8-.1 1.9-.4h.05q0-1.75-.7-3T6.8-12.4l-1.65 1.7-1.1 1.85-.35.75-.25.35L5.25-12l.75-.8m5.75 3.25q4.6-3.75 5.6 3.15l.05.4q-.95-2.35-2.8-4.6l-1.05.6-1.3 2.05-.5-1.6m.3 1.9h.05-.05" fill="#040005" transform="translate(26.05 14.35)"/><path d="M14.8 4.85Q8.2 5.45 5.45-1L5-2.3l11.7 4.7q-.1.8-.65 1.4l-.8.8-.45.25" fill="#fff" transform="translate(26.05 14.35)"/><path d="m-16.4 13.1-1.1.3q-2.55.15-4.85-.7l-.5-.25q10.9 1.4 10.75-8.1l1.55-.05q5.1 2.4 10.1 1.05l-.15.6-1.1.95-10-2.35 1.1 1.95q-1.2 2.8-3.3 4.85l-.65.5q-1.7 1.1-3.8 1.3l1.95-.05m31.65-8.5q1.6-.7 2.55-2.1l.8-1.6-.05.75q-.2 2.6-2.45 4l-.6.3Q11.65 7.7 8.05 5.1l.95.15q3.05.85 5.8-.4l.45-.25m-7.05.75.3.45-.55-.3.75 2.05-1.6-.25Q1.3 5.05-4.4 2.45l-.15-.2L-5 0q1.95 1 3.65 2.35 4.4 3.6 9.3 3.15l.25-.15" fill="#9200d2" transform="translate(26.05 14.35)"/></g></defs></svg>

<?xml version="1.0" encoding="UTF-8" standalone="no"?>
<svg xmlns:xlink="http://www.w3.org/1999/xlink" height="92.9px" width="100.7px" xmlns="http://www.w3.org/2000/svg">
  <g transform="matrix(1.0, 0.0, 0.0, 1.0, 38.65, 49.75)">
    <use height="28.75" transform="matrix(1.0, 0.0, 0.0, 1.0, -26.05, -14.35)" width="45.85" xlink:href="#shape0"/>
  </g>
  <defs>
    <g id="shape0" transform="matrix(1.0, 0.0, 0.0, 1.0, 26.05, 14.35)">
      <path d="M11.6 9.35 L11.35 10.6 Q10.3 11.25 5.45 11.25 L3.45 11.0 2.4 11.0 -5.65 10.45 Q-6.45 10.2 -7.0 9.6 L-8.7 11.7 Q-11.15 14.25 -13.3 14.25 -14.55 14.25 -14.65 12.95 -14.65 12.15 -13.4 11.75 -11.6 11.2 -10.45 9.9 L-9.45 8.3 -9.3 8.15 -9.55 8.0 Q-10.15 7.55 -10.15 6.7 -10.15 5.5 -8.7 5.5 -8.0 5.5 -6.3 6.65 L-4.25 7.95 Q-4.15 6.7 -3.3 6.25 L-2.0 5.7 4.4 5.5 Q9.85 5.5 11.15 6.15 11.5 6.3 11.5 7.1 L11.2 8.15 Q11.6 8.6 11.6 9.35" fill="#000000" fill-opacity="0.21176471" fill-rule="evenodd" stroke="none"/>
      <path d="M9.6 -10.65 L9.0 -11.9 Q8.4 -13.1 7.3 -13.3 L6.0 -12.8 5.25 -12.0 4.65 -11.55 4.4 -11.7 4.2 -12.2 1.8 -12.9 0.2 -12.9 -0.75 -13.05 -1.1 -13.1 -4.2 -13.2 -7.25 -12.65 -7.55 -12.6 -7.85 -12.5 -9.85 -11.8 -10.05 -11.7 -10.95 -11.2 -12.6 -10.0 -13.75 -8.8 -14.15 -8.45 -14.45 -7.9 -14.45 -7.85 -15.95 -4.8 -16.35 -2.1 -15.9 1.25 -15.75 1.65 -15.65 1.95 -15.3 2.9 -14.85 3.55 -13.85 5.1 Q-14.25 9.1 -18.5 9.65 L-19.7 9.7 -21.75 8.55 -21.9 7.35 -21.35 6.55 -19.7 6.05 -19.15 5.9 -18.2 6.4 -17.45 6.7 -16.6 6.1 Q-16.3 4.25 -18.0 3.45 L-18.75 3.15 Q-23.75 1.1 -25.05 6.0 L-25.2 6.95 -25.15 8.15 Q-25.1 11.55 -22.35 12.7 -20.05 13.55 -17.5 13.4 L-16.4 13.1 Q-14.3 12.8 -12.9 11.25 L-8.7 6.05 -2.05 7.5 Q-0.9 7.85 -0.05 6.85 L0.45 5.25 0.85 5.3 Q4.5 8.6 9.3 8.2 L9.7 6.8 10.85 7.2 Q14.85 8.2 17.75 5.5 21.65 0.75 18.1 -3.9 21.65 0.75 17.75 5.5 14.85 8.2 10.85 7.2 L9.7 6.8 8.5 5.8 8.2 5.35 8.05 5.1 Q11.65 7.7 15.5 5.95 L16.1 5.65 Q18.35 4.25 18.55 1.65 L18.6 0.9 17.8 2.5 Q18.75 -0.75 18.1 -3.9 L17.65 -4.45 17.4 -6.0 17.35 -6.4 Q16.35 -13.3 11.75 -9.55 L9.6 -10.65 11.75 -9.55 12.25 -7.95 12.1 -7.65 10.7 -8.3 9.95 -8.9 9.6 -10.65 M17.75 5.5 L16.0 6.9 13.35 8.3 10.55 8.2 10.0 8.7 Q5.25 9.85 1.05 6.85 0.65 8.1 -0.55 8.25 -4.65 9.3 -8.4 7.25 -10.25 10.25 -13.15 12.35 -18.3 16.2 -23.5 12.85 -26.65 10.9 -25.9 7.25 -24.0 -1.8 -16.15 3.8 -17.05 1.9 -17.3 -0.35 -17.7 -4.35 -15.15 -7.4 -6.75 -17.6 6.0 -12.8 -6.75 -17.6 -15.15 -7.4 -17.7 -4.35 -17.3 -0.35 -17.05 1.9 -16.15 3.8 -24.0 -1.8 -25.9 7.25 -26.65 10.9 -23.5 12.85 -18.3 16.2 -13.15 12.35 -10.25 10.25 -8.4 7.25 -4.65 9.3 -0.55 8.25 0.65 8.1 1.05 6.85 5.25 9.85 10.0 8.7 L10.55 8.2 13.35 8.3 16.0 6.9 17.75 5.5 M6.25 -5.65 Q9.55 -6.9 11.25 -3.9 L11.55 -3.2 10.55 -2.8 Q8.05 -5.55 4.5 -4.75 L6.25 -5.65 M14.25 -1.45 L13.75 -2.45 Q14.8 -3.85 16.25 -3.0 17.1 -2.5 17.65 -1.25 L16.4 -2.35 14.25 -1.45 M12.9 0.0 L15.2 0.1 13.85 0.7 12.9 0.0 M-16.65 7.6 L-17.0 7.8 Q-18.3 8.35 -19.2 7.2 L-20.35 7.1 -20.6 7.4 -20.6 8.3 -19.45 8.75 Q-15.9 8.75 -15.15 5.35 L-15.85 4.45 Q-15.1 6.3 -16.65 7.6" fill="#000000" fill-rule="evenodd" stroke="none"/>
      <path d="M17.4 -6.0 L17.65 -4.45 18.1 -3.9 Q18.75 -0.75 17.8 2.5 16.85 3.9 15.25 4.6 L16.05 3.8 Q16.6 3.2 16.7 2.4 L5.0 -2.3 5.45 -1.0 Q8.2 5.45 14.8 4.85 12.05 6.1 9.0 5.25 L8.05 5.1 8.2 5.35 7.95 5.5 Q3.05 5.95 -1.35 2.35 -3.05 1.0 -5.0 0.0 L-7.55 -2.45 -8.85 -2.3 Q-5.75 -0.45 -5.3 3.25 -2.0 3.15 -0.45 5.35 -5.45 6.7 -10.55 4.3 L-12.1 4.35 Q-11.95 13.85 -22.85 12.45 L-22.35 12.7 Q-25.1 11.55 -25.15 8.15 L-25.2 6.95 Q-21.75 15.2 -14.15 8.45 -13.0 7.5 -13.2 5.95 L-13.7 2.3 -13.7 2.25 -13.25 2.0 -13.75 2.0 -13.75 1.95 -14.0 0.05 -13.15 0.2 -14.05 -0.75 -14.05 -0.8 -13.7 -4.7 -12.1 -2.35 -12.8 -6.8 -10.3 -9.0 -9.35 -4.2 -8.7 -9.7 -8.65 -9.75 -5.05 -10.65 -5.4 -4.75 -2.95 -10.9 -2.9 -10.9 Q-1.5 -11.0 -0.1 -10.3 L0.6 -9.9 -0.1 -4.85 0.1 -5.85 1.7 -8.95 1.75 -8.9 3.45 -7.75 3.7 -8.1 6.95 -11.35 7.2 -11.2 Q8.55 -10.0 9.1 -8.15 L7.2 -7.75 9.0 -7.65 Q11.65 -7.35 14.1 -6.3 L12.15 -7.65 14.5 -9.8 16.3 -6.75 Q16.1 -9.15 14.5 -10.4 L13.55 -10.0 14.6 -10.6 Q16.45 -8.35 17.4 -6.0 M-19.15 5.9 L-19.7 6.05 -19.1 5.85 -19.15 5.9 M-21.75 8.55 L-19.7 9.7 -21.15 9.4 Q-21.75 9.05 -21.75 8.55 M-14.85 3.55 L-15.3 2.9 -15.25 2.95 -14.85 3.55 M-12.6 -10.0 L-10.95 -11.2 -10.05 -11.7 -10.05 -11.65 -12.6 -10.0 M0.1 -5.85 L0.6 -4.2 -0.85 -3.3 0.25 -1.5 -0.95 -1.05 4.45 2.7 0.4 -0.65 1.55 -1.2 0.05 -3.1 1.65 -3.8 0.85 -5.4 2.4 -6.1 0.1 -5.85 M8.2 -7.45 L9.55 -6.6 Q11.65 -5.2 12.8 -2.9 L13.2 -3.2 13.55 -3.6 13.75 -3.95 14.0 -5.25 13.95 -6.1 8.2 -7.45 M6.25 -5.65 L4.5 -4.75 Q8.05 -5.55 10.55 -2.8 L11.55 -3.2 11.25 -3.9 Q9.55 -6.9 6.25 -5.65 M14.25 -1.45 L16.4 -2.35 17.65 -1.25 Q17.1 -2.5 16.25 -3.0 14.8 -3.85 13.75 -2.45 L14.25 -1.45 M12.9 0.0 L13.85 0.7 15.2 0.1 12.9 0.0" fill="#a449d7" fill-rule="evenodd" stroke="none"/>
      <path d="M-15.3 2.9 L-15.65 1.95 -15.3 2.85 -15.25 2.95 -15.3 2.9 M1.7 -8.95 L0.1 -5.85 -0.1 -4.85 0.6 -9.9 0.65 -9.9 1.7 -8.95 M-2.95 -10.9 L-5.4 -4.75 -5.05 -10.65 -5.0 -10.65 -2.95 -10.9 M-8.7 -9.7 L-9.35 -4.2 -10.3 -9.0 -10.25 -9.05 -8.7 -9.7 M-12.8 -6.8 L-12.1 -2.35 -13.7 -4.7 -12.8 -6.8 M-14.05 -0.75 L-13.15 0.2 -14.0 0.05 -14.0 0.0 -14.05 -0.75 M-13.75 2.0 L-13.25 2.0 -13.7 2.25 -13.75 2.0" fill="#d779ff" fill-rule="evenodd" stroke="none"/>
      <path d="M-25.2 6.95 L-25.05 6.0 Q-23.75 1.1 -18.75 3.15 L-18.25 5.0 -19.1 5.85 -19.7 6.05 -21.35 6.55 -21.9 7.35 -21.75 8.55 Q-21.75 9.05 -21.15 9.4 L-19.7 9.7 -18.5 9.65 Q-14.25 9.1 -13.85 5.1 L-14.85 3.55 -15.25 2.95 -15.3 2.85 -13.7 2.3 -13.2 5.95 Q-13.0 7.5 -14.15 8.45 -21.75 15.2 -25.2 6.95 M-15.9 1.25 L-16.35 -2.1 -16.25 -1.65 -14.0 0.0 -14.0 0.05 -13.75 1.95 -15.9 1.25 M-15.95 -4.8 L-14.45 -7.85 -13.7 -4.7 -14.05 -0.8 -15.95 -4.8 M-10.05 -11.7 L-9.85 -11.8 -7.85 -12.5 -7.55 -12.6 -7.25 -12.65 -4.2 -13.2 -5.0 -10.65 -5.05 -10.65 -8.65 -9.75 -7.55 -12.6 -10.05 -11.7 M-1.1 -13.1 L-0.75 -13.05 0.2 -12.9 1.8 -12.9 0.65 -9.9 0.6 -9.9 -0.1 -10.3 Q-1.5 -11.0 -2.9 -10.9 L-1.15 -13.1 -1.1 -13.1 M4.4 -11.7 L4.65 -11.55 5.25 -12.0 3.45 -7.75 1.75 -8.9 4.4 -11.7 M9.1 -8.15 Q8.55 -10.0 7.2 -11.2 L6.95 -11.35 3.7 -8.1 4.05 -8.85 5.15 -10.7 6.8 -12.4 Q7.75 -12.4 8.45 -11.15 9.15 -9.9 9.15 -8.15 L9.1 -8.15 M-10.3 -9.0 L-12.8 -6.8 -12.6 -10.0 -10.05 -11.65 -10.25 -9.05 -10.3 -9.0 M8.2 -7.45 L13.95 -6.1 14.0 -5.25 13.75 -3.95 13.55 -3.6 13.2 -3.2 12.8 -2.9 Q11.65 -5.2 9.55 -6.6 L8.2 -7.45 M12.15 -7.65 L12.1 -7.65 12.25 -7.95 13.55 -10.0 14.5 -10.4 Q16.1 -9.15 16.3 -6.75 L14.5 -9.8 12.15 -7.65 M12.1 -7.65 L10.25 -8.15 10.7 -8.3 12.1 -7.65 M-7.25 -12.65 L-7.85 -12.5 -7.25 -12.65" fill="#e366ff" fill-rule="evenodd" stroke="none"/>
      <path d="M-18.75 3.15 L-18.0 3.45 Q-16.3 4.25 -16.6 6.1 L-17.45 6.7 -18.2 6.4 -19.15 5.9 -19.1 5.85 -18.25 5.0 -18.75 3.15 M-15.65 1.95 L-15.75 1.65 -15.9 1.25 -13.75 1.95 -13.75 2.0 -13.7 2.25 -13.7 2.3 -15.3 2.85 -15.65 1.95 M-16.35 -2.1 L-15.95 -4.8 -14.05 -0.8 -14.05 -0.75 -14.0 0.0 -16.25 -1.65 -16.35 -2.1 M-14.45 -7.85 L-14.45 -7.9 -14.15 -8.45 -13.75 -8.8 -12.6 -10.0 -12.8 -6.8 -13.7 -4.7 -14.45 -7.85 M-4.2 -13.2 L-1.1 -13.1 -1.15 -13.1 -2.9 -10.9 -2.95 -10.9 -5.0 -10.65 -4.2 -13.2 M1.8 -12.9 L4.2 -12.2 4.4 -11.7 1.75 -8.9 1.7 -8.95 0.65 -9.9 1.8 -12.9 M-8.65 -9.75 L-8.7 -9.7 -10.25 -9.05 -10.05 -11.65 -10.05 -11.7 -7.55 -12.6 -8.65 -9.75 M9.95 -8.85 L9.95 -8.9 10.7 -8.3 10.25 -8.15 9.95 -8.85" fill="#ffa9ff" fill-rule="evenodd" stroke="none"/>
      <path d="M9.7 6.8 L9.3 8.2 Q4.5 8.6 0.85 5.3 L0.45 5.25 -0.05 6.85 Q-0.9 7.85 -2.05 7.5 L-8.7 6.05 -12.9 11.25 Q-14.3 12.8 -16.4 13.1 L-18.35 13.15 Q-16.25 12.95 -14.55 11.85 L-13.9 11.35 Q-11.8 9.3 -10.6 6.5 L-11.7 4.55 -1.7 6.9 -0.6 5.95 -0.45 5.35 Q-2.0 3.15 -5.3 3.25 -5.75 -0.45 -8.85 -2.3 L-7.55 -2.45 -5.0 0.0 -4.55 2.25 -4.4 2.45 Q1.3 5.05 7.1 7.3 L8.7 7.55 7.95 5.5 8.5 5.8 9.7 6.8 M0.1 -5.85 L2.4 -6.1 0.85 -5.4 1.65 -3.8 0.05 -3.1 1.55 -1.2 0.4 -0.65 4.45 2.7 -0.95 -1.05 0.25 -1.5 -0.85 -3.3 0.6 -4.2 0.1 -5.85" fill="#620088" fill-rule="evenodd" stroke="none"/>
      <path d="M6.0 -12.8 L7.3 -13.3 Q8.4 -13.1 9.0 -11.9 L9.6 -10.65 9.95 -8.9 9.95 -8.85 10.25 -8.15 12.1 -7.65 12.15 -7.65 14.1 -6.3 Q11.65 -7.35 9.0 -7.65 L7.2 -7.75 9.1 -8.15 9.15 -8.15 Q9.15 -9.9 8.45 -11.15 7.75 -12.4 6.8 -12.4 L5.15 -10.7 4.05 -8.85 3.7 -8.1 3.45 -7.75 5.25 -12.0 6.0 -12.8 M11.75 -9.55 Q16.35 -13.3 17.35 -6.4 L17.4 -6.0 Q16.45 -8.35 14.6 -10.6 L13.55 -10.0 12.25 -7.95 11.75 -9.55 M12.05 -7.65 L12.1 -7.65 12.05 -7.65" fill="#040005" fill-rule="evenodd" stroke="none"/>
      <path d="M14.8 4.85 Q8.2 5.45 5.45 -1.0 L5.0 -2.3 16.7 2.4 Q16.6 3.2 16.05 3.8 L15.25 4.6 14.8 4.85" fill="#ffffff" fill-rule="evenodd" stroke="none"/>
      <path d="M-16.4 13.1 L-17.5 13.4 Q-20.05 13.55 -22.35 12.7 L-22.85 12.45 Q-11.95 13.85 -12.1 4.35 L-10.55 4.3 Q-5.45 6.7 -0.45 5.35 L-0.6 5.95 -1.7 6.9 -11.7 4.55 -10.6 6.5 Q-11.8 9.3 -13.9 11.35 L-14.55 11.85 Q-16.25 12.95 -18.35 13.15 L-16.4 13.1 M15.25 4.6 Q16.85 3.9 17.8 2.5 L18.6 0.9 18.55 1.65 Q18.35 4.25 16.1 5.65 L15.5 5.95 Q11.65 7.7 8.05 5.1 L9.0 5.25 Q12.05 6.1 14.8 4.85 L15.25 4.6 M8.2 5.35 L8.5 5.8 7.95 5.5 8.7 7.55 7.1 7.3 Q1.3 5.05 -4.4 2.45 L-4.55 2.25 -5.0 0.0 Q-3.05 1.0 -1.35 2.35 3.05 5.95 7.95 5.5 L8.2 5.35" fill="#9200d2" fill-rule="evenodd" stroke="none"/>
    </g>
  </defs>
</svg>
